X:1
T:Why Do the Holy Angels Sing?
T:William Howard Doane
T:Why Do the Holy Angels Sing?
T:Public Domain
T:Public Domain
C:William Howard Doane
Z:Public Domain
%%score ( 1 2 ) ( 3 4 )
L:1/8
M:4/4
K:D
V:1 treble 
V:2 treble 
V:3 bass 
V:4 bass 
V:1
 ([DF]>[EG]) | ([FA]>[^E^G]) ([FA]>[=GB]) [FA]2 [FA]2 | [FA]2 [Af]2 [Fd]2 [Fd]2 | %3
w: 1.~Why *|do * the * ho- ly|an- gels sing? Why|
w: 2.~Glo- *|ry * to * Thee, our|God, they cry, Mak-|
w: 3.~Beau- *|ti- * ful * world where|all is bright, Riv-|
w: 4.~Well *|may * the * ho- ly|an- gels sing, Well|
 [Ac]>[GB] [Ac]>[Fd] [Ge]2 [Ec]2 | [F-d]4 [FA]2 ([DF]>[EG]) | %5
w: do the heav’n- ly arch- es|ring * With *|
w: er of earth, and sea, and|sky, * To *|
w: ers of gold and fields of|light, * In *|
w: may the heav- ’nly arch- es|ring, * With *|
 ([FA]>[^E^G]) ([FA]>[=GB]) [FA]2 [FA]2 | [FA]2 [Af]2 [Fd]2 [Fd]2 | %7
w: an- * thems * sweet from|ser- aphs bright, With|
w: Thee * our * high- est|strains be- long, Thou|
w: mur- * mured * tones of|joy pro- long The|
w: an- * thems * sweet from|choirs a- bove, They|
 [Ac]>[GB] [Ac]>[Fd] [Ge]2 [Ec]2 | ([Ge]4 [Fd]2) ||"^Refrain" [Fd]2 | %10
w: glitt- ’ring crowns and robes of|white? *||
w: great In- spir- er of our|song. *|They|
w: ech- o of the an- gels’|song *||
w: sing of God, and God is|love. *||
 (dc) [Fd]>[Fe] [Fd]2 [GB]>[GB] | ([FA]4 [DF]2) [DF]2 | [EG]2 [CA]>[EG] [DF]2 ([FA][DF]) | %13
w: |||
w: sing * of the Lamb that was|The * Sav-|ior that lives a- gain, *|
w: |||
w: |||
 ([CE]4 z G) ([DF]>[EG]) | [FA]>[^E^G] [FA]>[=GB] [FA]2 [DF]>[FA] | (F2 A2) [Gd]2 ([DA][EG]) | %16
w: |||
w: The * Root *|* * the Off- spring of Da-|vid, * The bright *|
w: |||
w: |||
 [DF]2 (FD) [CE]2 (GC) | D6 |] %18
w: ||
w: Morn- ing * Star! * *||
w: ||
w: ||
V:2
 x2 | x8 | x8 | x8 | x8 | x8 | x8 | x8 | x6 || x2 | F2 x6 | x8 | x8 | x4 [EA]2 x2 | x8 | d4 x4 | %16
w: ||||||||||||||||
w: ||||||||||slain,|||and||and|
 x2 A2 x A2 x | D6 |] %18
w: ||
w: ||
V:3
 [D,A,]2 | [D,D]2 [D,D]2 [D,D]2 [D,D]2 | [D,D]6 [D,A,]2 | %3
 [A,,A,]>[A,,A,] [A,,A,]>[A,,A,] [A,,A,]2 [A,,A,]2 | [D,-A,]4 [D,D]2 [D,D]2 | %5
 [D,D]2 [D,D]2 [D,D]2 [D,D]2 | [D,D]6 [D,A,]2 | [A,,A,]>[A,,A,] [A,,A,]>[A,,A,] [A,,A,]2 [A,,A,]2 | %8
 ([A,,A,]4 [D,A,]2) || [D,A,]2 | B,^A, [B,,B,]>[B,,C] [B,,B,]2 [G,D]>[G,D] | (D4 A,2) [D,A,]2 | %12
 [C,A,]2 [A,,E,]>[A,,A,] [D,A,]2 [D,A,]2 | (A,4 z A,) [D,A,]2 | %14
 [D,D]2 [D,D]>[D,D] [D,D]2 [D,D]>[D,D] | [D,A,]2 [F,=C]2 [G,B,]2 [F,A,][G,B,] | %16
 A,2 A,2 [A,,A,]2 (A,G,) | [D,F,]6 |] %18
V:4
 x2 | x8 | x8 | x8 | x8 | x8 | x8 | x8 | x6 || x2 | B,,2 x6 | D,6 x2 | x8 | A,,6 E,2 | x8 | x8 | %16
 A,2 A,2 A,,2 x2 | x6 |] %18

